dist/assets/icons/symbols.svg

<svg xmlns="http://www.w3.org/2000/svg" xmlns:xlink="http://www.w3.org/1999/xlink"><defs>
        <clipPath id="a">
            <rect rx="0" width="69" height="23" transform="translate(.5 19.524)" fill="#fff" fill-opacity="0"/>
        </clipPath>
    </defs><symbol id="arrow"><g fill="none">
    
    <path d="M40.7 51.53c4.13 4.14 9.06 6.79 14.79 7.93 5.72 1.15 11.28.6 16.68-1.65 5.39-2.24 9.71-5.8 12.96-10.68C88.37 42.26 90 36.88 90 31.02c0-5.87-1.63-11.24-4.87-16.11-3.25-4.88-7.57-8.44-12.96-10.68-5.4-2.25-10.96-2.8-16.68-1.65-5.73 1.14-10.66 3.78-14.79 7.93L39.29 9.1C43.7 4.67 48.97 1.84 55.1.61c6.12-1.22 12.07-.63 17.84 1.77s10.38 6.2 13.85 11.42C90.26 19.01 92 24.75 92 31.02s-1.74 12.01-5.21 17.22c-3.47 5.21-8.08 9.02-13.85 11.42-5.77 2.4-11.72 2.99-17.84 1.76-6.13-1.22-11.4-4.05-15.81-8.48l1.41-1.41Zm-1.39 1.41h-.02a.99.99 0 0 1 0-1.42.987.987 0 0 1 1.41.01v.02l-1.39 1.39Zm1.39-42.46v.03c-.39.4-1.01.4-1.41 0a.978.978 0 0 1 0-1.41h.02l1.39 1.38Z" fill="#1F1E1E" fill-rule="evenodd"/>
    <g clip-path="url(#a)" stroke="#1F1E1E" stroke-width="2" stroke-linejoin="round" stroke-linecap="round">
        <path d="M5 31.02h60M58 24.02l7 7-7 7"/>
    </g>
</g></symbol><symbol id="logo" viewBox="0 0 202 147"><g fill="none">
    <path fill="#1F1E1E" d="M0 0h147v147H0z"/>
    <path d="M39.965 72.439H26.633V50.032h-.032v-.033h-4.686V73h18.05v-.561ZM43.932 73h18.117v-.561H48.618V61.285h10.494v-.594H48.618V50.56h13.43v-.561H43.933V73ZM70.7 73V50.56c2.87 0 11.714 1.089 12.374 13.893V73h4.686V49.999h-4.686v10.329C81.655 54.19 77.167 49.999 70.7 49.999h-4.686V73H70.7ZM97.39 73V50.56c2.87 0 11.714 1.089 12.374 13.893V73h4.686V49.999h-4.686v10.329c-1.419-6.138-5.907-10.329-12.375-10.329h-4.686V73h4.686ZM119.393 73h4.686V49.999h-4.686V73Z" fill="#fff"/>
    <path fill="#BC3324" d="M81 92h121v42H81z"/>
    <path d="M108.922 124h.54l2.94-8.55h8.55l3.33 8.55h4.47l-8.1-20.91h-4.53l-7.2 20.91Zm7.5-20.25 4.35 11.19h-8.19l3.84-11.19ZM132.644 103.09V124h4.26v-7.23h5.07l4.89 7.2h4.86l-5.16-7.65c3-.78 5.28-2.64 5.28-6.81 0-5.22-3.81-6.87-8.25-6.87-4.68 0-6.03 3.51-6.69 7.41v-6.96h-4.26Zm5.43 4.38c.81-2.94 2.91-4.14 4.77-4.29 4.47-.42 4.65 2.43 4.65 6.33 0 6.33-3.36 6.75-6.24 6.75h-4.35s-.12-4.14 1.17-8.79ZM162.084 103.6l.03 20.4h4.26v-20.4h8.61v-.51h-21.51v.51h8.61Z" fill="#fff"/>
</g></symbol></svg>

<svg id="logo" viewBox="0 0 202 147" fill="none" xmlns="http://www.w3.org/2000/svg">
    <rect width="147" height="147" fill="#1F1E1E"/>
    <path d="M39.9655 72.439H26.6335V50.032H26.6005V49.999H21.9145V73H39.9655V72.439Z" fill="white"/>
    <path d="M43.9316 73H62.0486V72.439H48.6176V61.285H59.1116V60.691H48.6176V50.56H62.0486V49.999H43.9316V73Z"
          fill="white"/>
    <path d="M70.6993 73V50.56C73.5703 50.56 82.4143 51.649 83.0743 64.453V73H87.7603V49.999H83.0743V60.328C81.6553 54.19 77.1673 49.999 70.6993 49.999H66.0133V73H70.6993Z"
          fill="white"/>
    <path d="M97.3893 73V50.56C100.26 50.56 109.104 51.649 109.764 64.453V73H114.45V49.999H109.764V60.328C108.345 54.19 103.857 49.999 97.3893 49.999H92.7033V73H97.3893Z"
          fill="white"/>
    <path d="M119.393 73H124.079V49.999H119.393V73Z" fill="white"/>
    <rect x="81" y="92" width="121" height="42" fill="#BC3324"/>
    <path d="M108.922 124H109.462L112.402 115.45H120.952L124.282 124H128.752L120.652 103.09H116.122L108.922 124ZM116.422 103.75L120.772 114.94H112.582L116.422 103.75Z"
          fill="white"/>
    <path d="M132.644 103.09V124H136.904V116.77H141.974L146.864 123.97H151.724L146.564 116.32C149.564 115.54 151.844 113.68 151.844 109.51C151.844 104.29 148.034 102.64 143.594 102.64C138.914 102.64 137.564 106.15 136.904 110.05V103.09H132.644ZM138.074 107.47C138.884 104.53 140.984 103.33 142.844 103.18C147.314 102.76 147.494 105.61 147.494 109.51C147.494 115.84 144.134 116.26 141.254 116.26H136.904C136.904 116.26 136.784 112.12 138.074 107.47Z"
          fill="white"/>
    <path d="M162.084 103.6L162.114 124H166.374V103.6H174.984V103.09H153.474V103.6H162.084Z" fill="white"/>
</svg>


<svg id="arrow" width="92.000000" height="62.047363" viewBox="0 0 92 62.0474" fill="none"
     xmlns="http://www.w3.org/2000/svg" xmlns:xlink="http://www.w3.org/1999/xlink">
<desc>
    Created with Pixso.
</desc>
<defs>
    <clipPath id="clip822_223">
        <rect id="fi:arrow-right" rx="0.000000" width="69.000000" height="23.000000"
              transform="translate(0.500000 19.523682)" fill="white" fill-opacity="0"/>
    </clipPath>
</defs>
<path id="Ellipse 31"
      d="M40.7 51.53C44.83 55.67 49.76 58.32 55.49 59.46C61.21 60.61 66.77 60.06 72.17 57.81C77.56 55.57 81.88 52.01 85.13 47.13C88.37 42.26 90 36.88 90 31.02C90 25.15 88.37 19.78 85.13 14.91C81.88 10.03 77.56 6.47 72.17 4.23C66.77 1.98 61.21 1.43 55.49 2.58C49.76 3.72 44.83 6.36 40.7 10.51L39.29 9.1C43.7 4.67 48.97 1.84 55.1 0.61C61.22 -0.61 67.17 -0.02 72.94 2.38C78.71 4.78 83.32 8.58 86.79 13.8C90.26 19.01 92 24.75 92 31.02C92 37.29 90.26 43.03 86.79 48.24C83.32 53.45 78.71 57.26 72.94 59.66C67.17 62.06 61.22 62.65 55.1 61.42C48.97 60.2 43.7 57.37 39.29 52.94L40.7 51.53ZM39.31 52.94L39.29 52.94C38.89 52.54 38.89 51.92 39.29 51.52C39.69 51.13 40.31 51.13 40.7 51.53L40.7 51.55L39.31 52.94ZM40.7 10.48L40.7 10.51C40.31 10.91 39.69 10.91 39.29 10.51C38.89 10.12 38.89 9.5 39.29 9.1L39.31 9.1L40.7 10.48Z"
      fill="#1F1E1E" fill-opacity="1.000000" fill-rule="evenodd"/>
<g clip-path="url(#clip822_223)">
    <path id="Vector" d="M5 31.02L65 31.02" stroke="#1F1E1E" stroke-opacity="1.000000" stroke-width="2.000000"
          stroke-linejoin="round" stroke-linecap="round"/>
    <path id="Vector" d="M58 24.02L65 31.02L58 38.02" stroke="#1F1E1E" stroke-opacity="1.000000" stroke-width="2.000000"
          stroke-linejoin="round" stroke-linecap="round"/>
</g>
</svg>
